X: 152
T:St. Patricks Day in the morning.
Z: alf.
M:6/8
L:1/8
K:G
D|GAG GAB|ded dBG|BAB AFD|EFE E2|
D|GAG GAB|ded dBG|BAB AFD|E3  G2::
B | def gag | fed edB | def gag | fed e2B |
def gag | fed gfe | dBG GBd | gfe dBG | AGA BGD |
EFE E2D | GAG GAB|ded dBG| AGA BGD | E2F G2 :|
